dist/icons/lyne-warning-light-small.svg

<svg width="24" height="24" viewBox="0 0 24 24" fill="none" xmlns="http://www.w3.org/2000/svg">
<path fill-rule="evenodd" clip-rule="evenodd" d="M13 4.9997V1.9997H12V4.9997H13ZM9.35354 5.64615L7.35354 3.64615L6.64643 4.35326L8.64643 6.35326L9.35354 5.64615ZM18.3535 4.35326L16.3535 6.35326L15.6464 5.64615L17.6464 3.64615L18.3535 4.35326ZM8.99999 11.4997C8.99999 9.56684 10.5671 7.9997 12.5 7.9997C14.4328 7.9997 16 9.56684 16 11.4997V16.9997H8.99999V11.4997ZM7.99999 16.9997V11.4997C7.99999 9.01456 10.0148 6.9997 12.5 6.9997C14.9851 6.9997 17 9.01456 17 11.4997V16.9997H18.5H18.8604L18.9743 17.3416L19.9743 20.3416L20.1937 20.9997H19.5H5.49999H4.80627L5.02565 20.3416L6.02565 17.3416L6.13961 16.9997H6.49999H7.99999ZM11 10.9997V15.9997H9.99999V10.9997H11ZM6.1937 19.9997L6.86037 17.9997H18.1396L18.8063 19.9997H6.1937Z" fill="black"/>
</svg>

<svg width="24" height="24" xmlns="http://www.w3.org/2000/svg"><path fill-rule="evenodd" clip-rule="evenodd" d="m13,5v-3h-1v3h1zm-3.65.65-2-2-.71.71,2,2,.71-.71zm9-1.29-2,2-.71-.71,2-2,.71.71zM9,11.5c0-1.93,1.57-3.5,3.5-3.5,1.93,0,3.5,1.57,3.5,3.5v5.5H9v-5.5zm-1,5.5v-5.5c0-2.49,2.01-4.5,4.5-4.5,2.49,0,4.5,2.01,4.5,4.5v5.5h1.86l1.33,4H4.81l1.33-4h1.86zm3-6v5H10v-5H11zm-4.81,9,.67-2H18.14l.67,2H6.19z"/></svg>
